X:211
T:Lands End
C:Tim O'Brien
N:Transcribed by Mike Stangeland
L:1/8
Q:1/4=180
M:3/4
K:D
z6 |: "D"=cd dc Ac | "G"dg gf dA | "D"=cd dc AF | "C"G=c GF DA | "D"=cd dc Ac | 
"G"dg gf dA | "Am"=cd cA Gc | "D"GF D2 D2 :|: G,"D"A, A,=C A,C | "G"G,B, B,=C B,C | 
"D"G,A, A,=C A,C | "G"B,G, (3A,B,A, G,B, | "D"G,A, A,=C A,C | "G"G,B, B,=C B,C | 
"Am"A,B, =CD EG |1 F"D"D (3EFE D=C :|2 F"D"D E=C D2 |: "D"(3DED =CA, DE | FA EG FD | 
"C"(3DED =CD EC | (3EFG D=F E=C | "G"DE =FE D=C | B,G, A,B, G,B, | "D"A,D DA, B,D | 
A,D D4 :| 
 

